flaticon/technology/game-console-5.svg

<svg xmlns="http://www.w3.org/2000/svg" width="32" height="32" viewBox="0 0 24 24">
    <path d="M23.40625 3.597656L14.648438.261719C14.605469.246094 14.5625.238281 14.515625.238281 14.511719.238281 14.507812.234375 14.5.234375L10.332031.234375C10.101562.234375 9.914062.421875 9.914062.652344L9.914062 23.582031C9.914062 23.8125 10.101562 24 10.332031 24L14.5 24C14.546875 24 14.589844 23.992188 14.632812 23.976562L23.390625 21.058594C23.558594 21.003906 23.675781 20.84375 23.675781 20.664062L23.675781 3.988281C23.675781 3.8125 23.566406 3.660156 23.40625 3.597656zM10.75 1.066406L14.085938 1.066406 14.085938 23.167969 10.75 23.167969C10.75 23.167969 10.75 1.066406 10.75 1.066406zM22.839844 20.363281L14.917969 23.003906 14.917969 1.257812 22.839844 4.273438zM4.910156 15.246094C4.910156 14.324219 4.164062 13.578125 3.246094 13.578125 2.324219 13.578125 1.578125 14.324219 1.578125 15.246094 1.578125 16.164062 2.324219 16.910156 3.246094 16.910156 4.164062 16.910156 4.910156 16.164062 4.910156 15.246094zM3.246094 16.078125C2.785156 16.078125 2.410156 15.703125 2.410156 15.246094 2.410156 14.785156 2.785156 14.410156 3.246094 14.410156 3.703125 14.410156 4.078125 14.785156 4.078125 15.246094 4.078125 15.703125 3.703125 16.078125 3.246094 16.078125zM1.992188 2.734375L2.828125 2.734375 2.828125 3.570312 1.992188 3.570312zM3.660156 2.734375L4.496094 2.734375 4.496094 3.570312 3.660156 3.570312zM3.660156 4.402344L4.496094 4.402344 4.496094 5.238281 3.660156 5.238281zM1.992188 4.402344L2.828125 4.402344 2.828125 5.238281 1.992188 5.238281zM1.992188 6.070312L2.828125 6.070312 2.828125 6.90625 1.992188 6.90625zM3.660156 6.070312L4.496094 6.070312 4.496094 6.90625 3.660156 6.90625zM1.992188 7.738281L2.828125 7.738281 2.828125 8.574219 1.992188 8.574219zM3.660156 7.738281L4.496094 7.738281 4.496094 8.574219 3.660156 8.574219zM3.660156 9.40625L4.496094 9.40625 4.496094 10.242188 3.660156 10.242188zM1.992188 9.40625L2.828125 9.40625 2.828125 10.242188 1.992188 10.242188zM1.992188 11.074219L2.828125 11.074219 2.828125 11.910156 1.992188 11.910156zM3.660156 11.074219L4.496094 11.074219 4.496094 11.910156 3.660156 11.910156zM3.660156 11.074219"/>
    <path d="M12.417969 18.996094C12.648438 18.996094 12.832031 18.808594 12.832031 18.578125L12.832031 4.402344C12.832031 4.171875 12.648438 3.988281 12.417969 3.988281 12.1875 3.988281 12 4.171875 12 4.402344L12 18.578125C12 18.808594 12.1875 18.996094 12.417969 18.996094zM12.417969 19.832031C11.726562 19.832031 11.167969 20.390625 11.167969 21.082031 11.167969 21.769531 11.726562 22.332031 12.417969 22.332031 13.105469 22.332031 13.667969 21.769531 13.667969 21.082031 13.667969 20.390625 13.105469 19.832031 12.417969 19.832031zM12.417969 21.5C12.1875 21.5 12 21.3125 12 21.082031 12 20.851562 12.1875 20.664062 12.417969 20.664062 12.648438 20.664062 12.832031 20.851562 12.832031 21.082031 12.832031 21.3125 12.648438 21.5 12.417969 21.5zM7.007812 21.082031C6.925781 21.074219 5.515625 20.941406 4.105469 19.398438 5.261719 19.265625 6.164062 18.285156 6.164062 17.09375L6.164062 2.320312C6.164062 1.039062 5.121094 0 3.84375 0L2.644531 0C1.367188 0 .324219 1.039062.324219 2.320312L.324219 17.09375C.324219 18.371094 1.367188 19.414062 2.644531 19.414062L2.847656 19.414062C2.9375 20.476562 3.492188 23.542969 6.929688 23.582031 6.9375 23.582031 6.941406 23.582031 6.945312 23.582031 7.589844 23.582031 8.144531 23.128906 8.234375 22.519531 8.289062 22.15625 8.183594 21.792969 7.945312 21.515625 7.707031 21.242188 7.367188 21.082031 7.007812 21.082031zM1.160156 17.09375L1.160156 2.320312C1.160156 1.5 1.824219.832031 2.644531.832031L3.84375.832031C4.664062.832031 5.328125 1.5 5.328125 2.320312L5.328125 17.09375C5.328125 17.914062 4.664062 18.578125 3.84375 18.578125L2.644531 18.578125C1.824219 18.578125 1.160156 17.914062 1.160156 17.09375zM6.945312 22.75C6.945312 22.75 6.941406 22.75 6.941406 22.75 4.941406 22.726562 4.15625 21.429688 3.851562 20.332031 5.449219 21.867188 6.980469 21.914062 6.996094 21.914062 7.117188 21.914062 7.234375 21.96875 7.3125 22.058594 7.394531 22.152344 7.425781 22.273438 7.410156 22.398438 7.378906 22.597656 7.175781 22.75 6.945312 22.75zM6.945312 22.75"/>
</svg>

<svg xmlns="http://www.w3.org/2000/svg" width="32" height="32" viewBox="0 0 24 24">
    <path d="M23.406 3.598L14.648.262a.38.38 0 0 0-.132-.024c-.004 0-.008-.004-.016-.004h-4.168a.418.418 0 0 0-.418.418v22.93c0 .23.188.418.418.418H14.5a.38.38 0 0 0 .133-.023l8.758-2.918a.417.417 0 0 0 .285-.395V3.988a.42.42 0 0 0-.27-.39zM10.75 1.066h3.336v22.102H10.75V1.066zm12.09 19.297l-7.922 2.64V1.259l7.922 3.015zm0 0M4.91 15.246a1.666 1.666 0 1 0-3.332-.003 1.666 1.666 0 0 0 3.332.003zm-1.664.832a.836.836 0 0 1-.836-.832c0-.46.375-.836.836-.836a.835.835 0 0 1 0 1.668zm0 0M1.992 2.734h.836v.836h-.836zm0 0M3.66 2.734h.836v.836H3.66zm0 0M3.66 4.402h.836v.836H3.66zm0 0M1.992 4.402h.836v.836h-.836zm0 0M1.992 6.07h.836v.836h-.836zm0 0M3.66 6.07h.836v.836H3.66zm0 0M1.992 7.738h.836v.836h-.836zm0 0M3.66 7.738h.836v.836H3.66zm0 0M3.66 9.406h.836v.836H3.66zm0 0M1.992 9.406h.836v.836h-.836zm0 0M1.992 11.074h.836v.836h-.836zm0 0M3.66 11.074h.836v.836H3.66zm0 0"/>
    <path d="M12.418 18.996c.23 0 .414-.187.414-.418V4.402a.412.412 0 0 0-.414-.414.415.415 0 0 0-.418.414v14.176c0 .23.188.418.418.418zm0 0M12.418 19.832a1.251 1.251 0 0 0 0 2.5c.687 0 1.25-.562 1.25-1.25 0-.691-.563-1.25-1.25-1.25zm0 1.668a.418.418 0 0 1 0-.836c.23 0 .414.188.414.418 0 .23-.184.418-.414.418zm0 0M7.008 21.082c-.082-.008-1.492-.14-2.903-1.684a2.325 2.325 0 0 0 2.06-2.304V2.32A2.323 2.323 0 0 0 3.843 0h-1.2a2.323 2.323 0 0 0-2.32 2.32v14.774a2.326 2.326 0 0 0 2.32 2.32h.204c.09 1.063.644 4.129 4.082 4.168h.015c.645 0 1.2-.453 1.29-1.062a1.249 1.249 0 0 0-1.227-1.438zM1.16 17.094V2.32c0-.82.664-1.488 1.485-1.488h1.199c.82 0 1.484.668 1.484 1.488v14.774c0 .82-.664 1.484-1.484 1.484h-1.2c-.82 0-1.484-.664-1.484-1.484zm5.785 5.656h-.004c-2-.023-2.785-1.32-3.09-2.418 1.598 1.535 3.13 1.582 3.145 1.582.121 0 .238.055.316.145a.426.426 0 0 1 .098.34c-.031.199-.234.351-.465.351zm0 0"/>
</svg>
